X:45
T:Jockey's Jigg. Ru2.045, The
%%VWML:RutherfordVol2-2249-p23-0
F:http://www.vwml.org/record/RutherfordVol2/2249/p23
L:1/8
R:Jigg
B:RUTHERFORD Complete Collection of 200 Country Dances Vol.2; 1759.
Z:vmp. Peter Dunk 2015
Q:3/8=100
K:F
B|AFA BGB|AFA f2c|cAf cAF|BGG G2c|
AFA BGB|cAc def|ece gbg|aff f2:|
|:f/g/|afd gec|fdf cAF|BgB AfA|BGG G2f/g/|
afd cac|BgB Ace|fed cAf|cAF F2:|
W:
W:Hands round 6 .| back again :| lead through the 3d Cu & cast up
W:into the 2d Cu: places .|. lead thro the top cast off & turn :|
T:Breas of Strathdown. Ru2.046, The
M:C|
L:1/8
B:RUTHERFORD Complete Collection of 200 Country Dances Vol.2; 1759.
Z:vmp. Peter Dunk 2015
Q:1/2=80
K:D
B|AFdF AF df|e>def EE/E/ E2|AFdF ABdf|dBAF DD/D/D2:|
|:e|defd edfd|edef BB/B/B2|defd edfd|Agfe dd/d/d2:|
W:
W:Foot it & cast off 2d Cu: .| lead to the top  foot it & cast
W:off :| Hands round 4 with the 3d Cu: .|. right and left at top :|
